X:3
T: Mikor engem assszentáltak
O: Ghymes (Nyitra), 1906
Q: "Lento, parlandon" 1/4=66
M:none
L:1/8
K:C
A<AEE | AAEE z2 |
ABc<B | AB AG z2 |
A>B c<B | A>B A<G |
D/D/F/F/ A/A/G/F/ | E<E E<E z2 |

